X: 105
T: White Cockade
R: reel
B: NEFR #105
B: "Rinnci na h-\'Eireann" Elizabeth Burchenal, ed. G.Schirmer (1925) p.112
Z: 2006 John Chambers <jc:trillian.mit.edu>
M: C|
L: 1/8
K: G
GA \
| "G"B2 B2 B2 AG | d2 B2 B2 ge | d2 B2 cB AG | "D"B2 A2 A2 GA \
| "G"B2 B2 cB AG | B2 d2 g3 a | ba gf "C"ef ge | "G"d2 B2 B2 :|
|: Bc \
| "G"d2 B2 g2 B2 | d^c de d2 B=c | d2 Bd g2 fg | "D"a2 A2 A2 GA \
| "G"B2 Bd cB AG | B2 d2 g3 a | ba gf "C"ef ge | "G"d2 B2 B2 :|
